; Postprocessed by [ArcWelder](https://github.com/FormerLurker/ArcWelderLib)
; Copyright(C) 2021 - Brad Hochgesang
; Version: 1.2.0, Branch: master, BuildDate: 2021-11-21T20:04:00Z
; resolution=0.05mm
; path_tolerance=5.0%
; max_radius=9999.00mm
; default_xyz_precision=3
; default_e_precision=5
; extrusion_rate_variance=5.0%

; generated by AnycubicSlicer 1.4.4 on 2025-06-17 at 04:11:05 UTC




; 

; external perimeters extrusion width = 0.42mm
; perimeters extrusion width = 0.45mm
; infill extrusion width = 0.45mm
; solid infill extrusion width = 0.50mm
; top infill extrusion width = 0.42mm
; first layer extrusion width = 0.56mm

M201 X2500 Y2500 Z800 E2500 ; sets maximum accelerations, mm/sec^2
M203 X250 Y250 Z8 E80 ; sets maximum feedrates, mm / sec
M204 S2500 T2500 ; sets acceleration (S) and retract acceleration (R), mm/sec^2
M205 X10.00 Y10.00 Z2.00 E10.00 ; sets the jerk limits, mm/sec
M205 S0 T0 ; sets the minimum extruding and travel feed rate, mm/sec
;TYPE:Custom
G90 ; use absolute coordinates
M83 ; extruder relative mode
M104 S215 ; set extruder temp
M140 S60 ; set bed temp
M190 S60 ; wait for bed temp
M109 S215 ; wait for extruder temp
G28                                        ; move X/Y/Z to min endstops
G1 Z0.28                                   ; lift nozzle a bit 
G92 E0 
G1 Y3 F1800                                    ; zero the extruded length 
G1 X60  E25 F500                       ; Extrude 25mm of filament in a 5cm line. 
G92 E0                                     ; zero the extruded length again 
G1 E-2 F500                                ; Retract a little 
G1 X70 F4000                              ; Quickly wipe away from the filament line
M117
G21 ; set units to millimeters
G90 ; use absolute coordinates
M82 ; use absolute distances for extrusion
G92 E0
M107
;LAYER_CHANGE
;Z:0.28
;HEIGHT:0.28
; BEFORE_LAYER_CHANGE 0 @ 0.28mm
G1 E-2 F4800
G92 E0
G1 Z.28 F7200
; AFTER_LAYER_CHANGE 0 @ 0.28mm
G1 X91.824 Y87.803
G1 E2 F4800
;TYPE:External perimeter
;WIDTH:0.56
G1 F3000
G1 X92.328 Y87.737 E2.02958
G1 X92.997 Y87.708 E2.06855
G1 X128.997 Y87.709 E4.16357
G3 X136.711 Y94.810 I-0.025 J7.768 E4.83292
G1 X136.711 Y119.422 E6.26521
G3 X128.985 Y127.148 I-7.721 J0.005 E6.97137
G1 X92.997 Y127.148 E9.06569
G3 X85.271 Y119.422 I-0.006 J-7.720 E9.77189
G1 X85.271 Y95.435 E11.16781
G3 X91.764 Y87.811 I7.710 J-0.010 E11.80192
G1 X92.079 Y88.111 F7200
G1 X91.888 Y88.299
;TYPE:Perimeter
G1 F3000
G3 X93.008 Y88.208 I1.091 J6.493 E11.86737
G1 X128.987 Y88.209 E13.96117
G3 X136.211 Y94.828 I-0.016 J7.269 E14.58644
G1 X136.211 Y119.411 E16.01705
G3 X128.974 Y126.648 I-7.221 J0.016 E16.67876
G1 X93.008 Y126.648 E18.7718
G3 X85.771 Y119.411 I-0.016 J-7.221 E19.43352
G1 X85.771 Y95.445 E20.82822
G3 X91.829 Y88.307 I7.212 J-0.019 E21.42098
G1 X91.953 Y88.795 F7200
G1 F3000
G3 X93.018 Y88.708 I1.025 J5.979 E21.48322
G1 X128.976 Y88.709 E23.57579
G3 X135.711 Y94.846 I-0.038 J6.806 E24.15698
G1 X135.711 Y119.4 E25.5859
G3 X128.963 Y126.149 I-6.724 J0.025 E26.20318
G1 X93.019 Y126.149 E28.29494
G3 X86.271 Y119.401 I-0.024 J-6.724 E28.91218
G1 X86.271 Y95.456 E30.30566
G3 X91.894 Y88.802 I6.717 J-0.026 E30.85715
G1 E29.45715 F4800
;WIPE_START
G1 F5760
G3 X92.647 Y88.724 I0.825 J4.292 E28.85715
;WIPE_END
G92 E0
G1 X97.946 Y105.696 F7200
G1 E2 F4800
;TYPE:External perimeter
G1 F3000
G3 X97.668 Y105.567 I-0.970 J1.726 E2.70559
G1 X97.891 Y105.671 E2.71991
G1 X98.276 Y105.5 F7200
G1 X98.198 Y105.262
;TYPE:Perimeter
G1 F3000
G3 X97.840 Y105.095 I-1.223 J2.155 E3.60357
G1 X98.144 Y105.237 E3.6231
G1 X98.414 Y104.811 F7200
G1 F3000
G3 X97.536 Y104.496 I-1.433 J2.614 E4.65842
G3 X98.360 Y104.786 I-0.418 J2.503 E4.70944
G1 E3.30944 F4800
;WIPE_START
G1 F5760
G1 X98.91 Y105.143 E2.79034
G1 X98.982 Y105.215 E2.70944
;WIPE_END
G92 E0
G1 X126.224 Y105.883 F7200
G1 E2 F4800
;TYPE:External perimeter
G1 F3000
G3 X125.668 Y105.567 I-1.244 J1.541 E2.68604
G3 X126.175 Y105.848 I-0.558 J1.604 E2.71989
G1 X126.59 Y105.742 F7200
G1 X126.555 Y105.504
;TYPE:Perimeter
G1 F3000
G3 X126.232 Y105.278 I-1.578 J1.912 E3.60361
G1 X126.506 Y105.47 E3.62308
G1 X126.962 Y105.195 F7200
G1 F3000
G3 X126.012 Y104.624 I-1.983 J2.224 E4.64807
G3 X126.919 Y105.152 I-0.986 J2.738 E4.70940
G1 E3.3094 F4800
;WIPE_START
G1 F5760
G3 X127.422 Y105.716 I-1.345 J1.706 E2.70940
;WIPE_END
G92 E0
G1 X134.632 Y92.172 F7200
G1 E2 F4800
;TYPE:Solid infill
;WIDTH:0.56019
G1 F3000
G1 X133.309 Y90.85 E2.10888
G2 X131.352 Y89.600 I-4.189 J4.402 E2.24487
G1 X134.824 Y93.072 E2.53072
G3 X135.140 Y94.095 I-5.332 J2.207 E2.59312
G1 X130.329 Y89.284 E2.98922
G2 X129.493 Y89.156 I-1.167 J4.829 E3.03849
G1 X135.278 Y94.941 E3.51478
G1 X135.279 Y95.649 E3.556
G1 X128.764 Y89.133 E4.09243
G1 X128.056 Y89.133 E4.13365
G1 X135.279 Y96.356 E4.72833
G1 X135.279 Y97.063 E4.76949
G1 X127.349 Y89.133 E5.42238
G1 X126.642 Y89.133 E5.46354
G1 X135.279 Y97.771 E6.17468
G1 X135.28 Y98.478 E6.21584
G1 X125.935 Y89.133 E6.98523
G1 X125.227 Y89.133 E7.02645
G1 X135.28 Y99.186 E7.85413
G1 X135.28 Y99.893 E7.89529
G1 X124.52 Y89.133 E8.78118
G1 X123.813 Y89.133 E8.82234
G1 X135.28 Y100.601 E9.76648
G1 X135.28 Y101.308 E9.80764
G1 X123.106 Y89.133 E10.80998
G1 X122.398 Y89.133 E10.8512
G1 X135.281 Y102.016 E11.91188
G1 X135.281 Y102.723 E11.95304
G1 X121.691 Y89.133 E13.07192
G1 X120.984 Y89.133 E13.11308
G1 X135.281 Y103.431 E14.29021
G1 X135.281 Y104.138 E14.33137
G1 X120.277 Y89.133 E15.56671
G1 X119.569 Y89.133 E15.60793
G1 X135.282 Y104.846 E16.9016
G1 X135.282 Y105.553 E16.94276
G1 X118.862 Y89.133 E18.29464
G1 X118.155 Y89.133 E18.3358
G1 X135.282 Y106.261 E19.74593
G1 X135.282 Y106.968 E19.78709
G1 X117.448 Y89.133 E21.25543
G1 X116.74 Y89.133 E21.29665
G1 X135.282 Y107.675 E22.82324
G1 X135.283 Y108.383 E22.86446
G1 X116.033 Y89.133 E24.44934
G1 X115.326 Y89.133 E24.4905
G1 X135.283 Y109.09 E26.13359
G1 X135.283 Y109.798 E26.17481
G1 X114.619 Y89.133 E27.87615
G1 X113.911 Y89.133 E27.91737
G1 X135.283 Y110.505 E29.67696
G1 X135.283 Y111.213 E29.71818
G1 X113.204 Y89.133 E31.53602
G1 X112.497 Y89.133 E31.57718
G1 X135.284 Y111.92 E33.45327
G1 X135.284 Y112.628 E33.49449
G1 X111.789 Y89.133 E35.42887
G1 X111.082 Y89.133 E35.47003
G1 X126.184 Y104.235 E36.7134
G3 X128.183 Y106.234 I-1.176 J3.175 E36.88300
G1 X135.284 Y113.335 E37.46764
G1 X135.284 Y114.043 E37.50886
G1 X128.386 Y107.144 E38.07682
G3 X128.370 Y107.835 I-2.537 J0.287 E38.11712
G1 X135.285 Y114.75 E38.68644
G1 X135.285 Y115.458 E38.72766
G1 X128.244 Y108.417 E39.30736
G3 X128.043 Y108.923 I-1.570 J-0.331 E39.33916
G1 X135.285 Y116.165 E39.9354
G1 X135.285 Y116.873 E39.97662
G1 X127.781 Y109.368 E40.59448
G3 X127.468 Y109.762 I-1.650 J-0.989 E40.62383
G1 X135.285 Y117.58 E41.26746
G1 X135.286 Y118.287 E41.30862
G1 X127.096 Y110.098 E41.98287
G3 X126.672 Y110.381 I-1.005 J-1.047 E42.01265
G1 X135.286 Y118.995 E42.72185
G1 X135.273 Y119.689 E42.76226
G1 X126.191 Y110.608 E43.50995
G3 X125.641 Y110.764 I-0.719 J-1.488 E43.54335
G1 X135.213 Y120.337 E44.33147
G1 X135.098 Y120.929 E44.36658
G1 X124.77 Y110.601 E45.2169
G1 E43.8169 F4800
;WIPE_START
G1 F5760
G1 X125.306 Y111.137 E43.2169
;WIPE_END
G92 E0
G1 X125.536 Y104.295 F7200
G1 E2 F4800
G1 F3000
G1 X110.375 Y89.133 E3.24827
G1 X109.668 Y89.133 E3.28943
G1 X124.584 Y104.05 E4.51753
G2 X124.000 Y104.173 I0.048 J1.678 E4.55236
G1 X108.96 Y89.133 E5.79062
G1 X108.253 Y89.133 E5.83178
G1 X123.49 Y104.371 E7.08631
G1 X123.042 Y104.629 E7.11641
G1 X107.546 Y89.133 E8.39222
G1 X106.839 Y89.133 E8.43338
G1 X122.656 Y104.951 E9.73566
G1 X122.319 Y105.32 E9.76475
G1 X106.131 Y89.133 E11.09749
G1 X105.424 Y89.133 E11.13865
G1 X122.038 Y105.747 E12.5065
G2 X121.812 Y106.228 I1.231 J0.872 E12.53756
G1 X104.717 Y89.133 E13.94502
G1 X104.01 Y89.133 E13.98618
G1 X121.655 Y106.778 E15.43892
G2 X121.592 Y107.423 I1.776 J0.499 E15.47680
G1 X103.302 Y89.133 E16.98264
G1 X102.595 Y89.133 E17.0238
G1 X121.679 Y108.217 E18.59501
G2 X124.202 Y110.740 I3.291 J-0.768 E18.81378
G1 X134.938 Y121.476 E19.69769
G1 X134.738 Y121.983 E19.72942
G1 X101.888 Y89.133 E22.43401
G1 X101.181 Y89.133 E22.47517
G1 X134.503 Y122.456 E25.21866
G1 X134.237 Y122.896 E25.24859
G1 X100.473 Y89.133 E28.02839
G1 X99.766 Y89.133 E28.06955
G1 X133.94 Y123.307 E30.88314
G1 X133.615 Y123.689 E30.91234
G1 X99.059 Y89.133 E33.75738
G1 X98.352 Y89.133 E33.79854
G1 X133.262 Y124.043 E36.67273
G1 X132.88 Y124.369 E36.70197
G1 X97.644 Y89.133 E39.603
G1 X96.937 Y89.133 E39.64416
G1 X132.471 Y124.667 E42.56972
G1 X132.031 Y124.934 E42.59968
G1 X96.23 Y89.133 E45.54723
G1 X95.523 Y89.133 E45.58839
G1 X131.559 Y125.17 E48.55533
G1 X131.053 Y125.371 E48.58703
G1 X94.815 Y89.133 E51.57056
G1 X94.108 Y89.133 E51.61172
G1 X130.507 Y125.533 E54.60854
G1 X129.916 Y125.648 E54.64359
G1 X93.401 Y89.133 E57.64992
G1 X92.707 Y89.147 E57.69033
G1 X129.27 Y125.71 E60.70061
G1 X128.577 Y125.724 E60.74096
G1 X92.062 Y89.209 E63.74729
G1 X91.471 Y89.325 E63.78235
G1 X127.87 Y125.724 E66.77913
G1 X127.162 Y125.724 E66.82035
G1 X90.925 Y89.487 E69.80379
G1 X90.419 Y89.688 E69.83549
G1 X126.455 Y125.724 E72.80239
G1 X125.748 Y125.724 E72.84355
G1 X89.948 Y89.924 E75.79101
G1 X89.509 Y90.192 E75.82095
G1 X125.041 Y125.724 E78.74635
G1 X124.333 Y125.724 E78.78757
G1 X89.099 Y90.489 E81.68848
G1 X88.718 Y90.816 E81.71771
G1 X123.626 Y125.724 E84.59174
G1 X122.919 Y125.724 E84.6329
G1 X88.365 Y91.17 E87.47778
G1 X88.04 Y91.552 E87.50698
G1 X122.212 Y125.724 E90.32041
G1 X121.504 Y125.724 E90.36163
G1 X87.743 Y91.963 E93.14122
G1 X87.477 Y92.403 E93.17115
G1 X120.797 Y125.724 E95.91447
G1 X120.09 Y125.724 E95.95563
G1 X87.242 Y92.876 E98.66005
G1 X87.043 Y93.384 E98.69181
G1 X97.781 Y104.122 E99.57588
G2 X96.982 Y104.030 I-0.664 J2.255 E99.62291
G1 X86.882 Y93.931 E100.45442
G1 X86.768 Y94.524 E100.48957
G1 X96.337 Y104.093 E101.2774
G2 X95.787 Y104.250 I0.169 J1.635 E101.31083
G1 X86.708 Y95.171 E102.05832
G1 X86.695 Y95.866 E102.09879
G1 X95.307 Y104.477 E102.80779
G2 X94.883 Y104.761 I0.580 J1.325 E102.83761
G1 X86.695 Y96.573 E103.51174
G1 X86.695 Y97.28 E103.5529
G1 X94.512 Y105.097 E104.19648
G2 X94.199 Y105.491 I1.293 J1.349 E104.22584
G1 X86.695 Y97.987 E104.84365
G1 X86.695 Y98.695 E104.88487
G1 X93.937 Y105.936 E105.48107
G2 X93.736 Y106.443 I1.382 J0.841 E105.51293
G1 X86.695 Y99.402 E106.09263
G1 X86.695 Y100.109 E106.13379
G1 X93.611 Y107.025 E106.70319
G2 X93.596 Y107.717 I2.608 J0.403 E106.74354
G1 X86.47 Y100.591 E107.33023
G1 E105.93023 F4800
;WIPE_START
G1 F5760
G1 X87.006 Y101.127 E105.33023
;WIPE_END
G92 E0
G1 X99.956 Y106.297 F7200
G1 E2 F4800
G1 F3000
G1 X119.383 Y125.724 E3.59945
G1 X118.675 Y125.724 E3.64067
G1 X100.389 Y107.437 E5.14622
G3 X100.326 Y108.082 I-1.854 J0.144 E5.18409
G1 X117.968 Y125.724 E6.63658
G1 X117.261 Y125.724 E6.67774
G1 X100.176 Y108.639 E8.08437
G1 X99.951 Y109.121 E8.11534
G1 X116.554 Y125.724 E9.48229
G1 X115.846 Y125.724 E9.52351
G1 X99.661 Y109.539 E10.85604
G3 X99.320 Y109.905 I-1.188 J-0.765 E10.88523
G1 X115.139 Y125.724 E12.18763
G1 X114.432 Y125.724 E12.22879
G1 X98.935 Y110.226 E13.50472
G1 X98.489 Y110.488 E13.53483
G1 X113.725 Y125.724 E14.78923
G1 X113.017 Y125.724 E14.83045
G1 X97.979 Y110.685 E16.06859
G3 X97.394 Y110.808 I-0.647 J-1.623 E16.10347
G1 X112.31 Y125.724 E17.33153
G1 X111.603 Y125.724 E17.37269
G1 X96.431 Y110.552 E18.62182
G1 E17.22182 F4800
;WIPE_START
G1 F5760
G1 X96.967 Y111.088 E16.62182
;WIPE_END
G92 E0
G1 X86.47 Y101.299 F7200
G1 E2 F4800
G1 F3000
G1 X93.802 Y108.63 E2.60361
G2 X95.774 Y110.602 I3.110 J-1.138 E2.77105
G1 X110.896 Y125.724 E4.01607
G1 X110.188 Y125.724 E4.05729
G1 X86.695 Y102.231 E5.9915
G1 X86.695 Y102.938 E6.03266
G1 X109.481 Y125.724 E7.90866
G1 X108.774 Y125.724 E7.94982
G1 X86.695 Y103.645 E9.76762
G1 X86.695 Y104.353 E9.80884
G1 X108.067 Y125.724 E11.56839
G1 X107.359 Y125.724 E11.60961
G1 X86.695 Y105.06 E13.31091
G1 X86.695 Y105.767 E13.35207
G1 X106.652 Y125.724 E14.99516
G1 X105.945 Y125.724 E15.03632
G1 X86.695 Y106.474 E16.6212
G1 X86.695 Y107.182 E16.66242
G1 X105.238 Y125.724 E18.18905
G1 X104.53 Y125.724 E18.23027
G1 X86.695 Y107.889 E19.69865
G1 X86.695 Y108.596 E19.73981
G1 X103.823 Y125.724 E21.14998
G1 X103.116 Y125.724 E21.19114
G1 X86.695 Y109.303 E22.5431
G1 X86.695 Y110.011 E22.58432
G1 X102.409 Y125.724 E23.87803
G1 X101.701 Y125.724 E23.91925
G1 X86.695 Y110.718 E25.15472
G1 X86.695 Y111.425 E25.19588
G1 X100.994 Y125.724 E26.37314
G1 X100.287 Y125.724 E26.4143
G1 X86.695 Y112.132 E27.53335
G1 X86.695 Y112.84 E27.57457
G1 X99.58 Y125.724 E28.63537
G1 X98.872 Y125.724 E28.67659
G1 X86.695 Y113.547 E29.67914
G1 X86.695 Y114.254 E29.7203
G1 X98.165 Y125.724 E30.66464
G1 X97.458 Y125.724 E30.7058
G1 X86.695 Y114.961 E31.59193
G1 X86.695 Y115.669 E31.63315
G1 X96.75 Y125.724 E32.46099
G1 X96.043 Y125.724 E32.50215
G1 X86.695 Y116.376 E33.27178
G1 X86.695 Y117.083 E33.31294
G1 X95.336 Y125.724 E34.02437
G1 X94.629 Y125.724 E34.06553
G1 X86.695 Y117.79 E34.71875
G1 X86.695 Y118.498 E34.75997
G1 X93.921 Y125.724 E35.3549
G1 X93.214 Y125.724 E35.39606
G1 X86.695 Y119.205 E35.93278
G1 X86.719 Y119.936 E35.97536
G1 X92.483 Y125.7 E36.44992
G3 X91.647 Y125.571 I0.300 J-4.715 E36.49920
G1 X86.848 Y120.772 E36.89431
G2 X87.166 Y121.797 I4.596 J-0.864 E36.95690
G1 X90.998 Y125.629 E37.27239
;LAYER_CHANGE
;Z:0.56
;HEIGHT:0.28
; BEFORE_LAYER_CHANGE 1 @ 0.56mm
G1 E35.87239 F4800
;WIPE_START
G1 F5760
G1 X90.462 Y125.093 E35.27239
;WIPE_END
G92 E0
G1 Z.56 F7200
; AFTER_LAYER_CHANGE 1 @ 0.56mm
M104 S195 ; set temperature
G1 X91.935 Y87.719
G1 E2 F4800
;TYPE:External perimeter
;WIDTH:0.42
G1 F4500
G3 X92.995 Y87.638 I0.998 J6.088 E2.04458
G1 X129.024 Y87.639 E3.5541
G3 X136.569 Y93.628 I-0.033 J7.789 E3.98910
G1 X136.769 Y94.511 E4.02703
G1 X136.781 Y94.701 E4.03501
G1 X136.781 Y119.424 E5.07084
G3 X128.986 Y127.218 I-7.790 J0.004 E5.58373
G1 X92.995 Y127.218 E7.09166
G3 X85.201 Y119.424 I-0.006 J-7.788 E7.60454
G1 X85.201 Y95.433 E8.6097
G3 X91.875 Y87.727 I7.770 J-0.013 E9.07548
G1 X92.184 Y88.032 F7200
G1 X91.982 Y88.091
;TYPE:Perimeter
;WIDTH:0.45
G1 F7419.267
G3 X93.003 Y88.013 I0.962 J5.877 E9.12200
G1 X129.016 Y88.014 E10.75662
G3 X136.206 Y93.720 I-0.023 J7.413 E11.20575
G1 X136.396 Y94.565 E11.24506
G1 X136.406 Y94.713 E11.25179
G1 X136.406 Y119.416 E12.37305
G3 X128.978 Y126.843 I-7.416 J0.011 E12.90264
G1 X93.003 Y126.843 E14.53554
G3 X85.576 Y119.416 I-0.011 J-7.416 E15.06511
G1 X85.576 Y95.441 E16.15333
G3 X91.923 Y88.098 I7.401 J-0.017 E16.63371
G1 X92.032 Y88.477 F7200
G1 F7419.267
G3 X93.011 Y88.403 I0.930 J5.785 E16.67832
G1 X129.008 Y88.404 E18.31222
G3 X135.828 Y93.815 I-0.020 J7.028 E18.73820
G1 X136.009 Y94.62 E18.77565
G1 X136.016 Y94.725 E18.78043
G1 X136.016 Y119.407 E19.90074
G3 X128.970 Y126.454 I-7.028 J0.019 E20.40330
G1 X93.012 Y126.454 E22.03543
G3 X85.966 Y119.407 I-0.018 J-7.028 E22.53802
G1 X85.966 Y95.45 E23.62542
G3 X91.973 Y88.485 I7.010 J-0.027 E24.08068
G1 E22.68068 F4800
;WIPE_START
G1 F5760
G3 X92.727 Y88.415 I0.792 J4.433 E22.08068
;WIPE_END
G92 E0
G1 X97.925 Y105.764 F7200
G1 E2 F4800
;TYPE:External perimeter
;WIDTH:0.42
G1 F4500
G3 X97.644 Y105.633 I-0.945 J1.660 E2.48938
G1 X97.87 Y105.738 E2.49982
G1 X98.232 Y105.583 F7200
G1 X98.158 Y105.464
;TYPE:Perimeter
;WIDTH:0.45
G1 F4500
G3 X97.773 Y105.279 I-1.178 J1.959 E3.13186
G1 X98.106 Y105.435 E3.14855
G1 X98.378 Y105.142 F7200
G1 F4500
G3 X97.476 Y104.796 I-1.394 J2.284 E3.86736
G3 X98.329 Y105.108 I-0.451 J2.554 E3.90875
G1 E2.50875 F4800
;WIPE_START
G1 F5760
G3 X98.917 Y105.582 I-1.061 J1.918 E1.90875
;WIPE_END
G92 E0
G1 X126.192 Y105.946 F7200
G1 E2 F4800
;TYPE:External perimeter
;WIDTH:0.42
G1 F4500
G3 X125.946 Y105.774 I-1.213 J1.474 E2.48978
G1 X126.143 Y105.911 E2.49983
G1 X126.531 Y105.817 F7200
G1 X126.478 Y105.694
;TYPE:Perimeter
;WIDTH:0.45
G1 F4500
G3 X126.432 Y105.656 I-1.479 J1.743 E3.14853
G1 X126.75 Y105.415 F7200
G1 F4500
G3 X125.907 Y104.911 I-1.772 J2.007 E3.86663
G3 X126.708 Y105.373 I-0.930 J2.538 E3.90876
G1 E2.50876 F4800
;WIPE_START
G1 F5760
G3 X127.205 Y105.941 I-1.324 J1.659 E1.90876
;WIPE_END
G92 E0
G1 X89.071 Y89.831 F7200
